img/svg/16/os/rosa.svg

<svg xmlns="http://www.w3.org/2000/svg" viewBox="0 0 16 16" enable-background="new 0 0 16 16"><g fill="#ccc"><path d="M8 1.199c-3.75 0-6.801 3.051-6.801 6.801s3.051 6.801 6.801 6.801 6.801-3.051 6.801-6.801-3.051-6.801-6.801-6.801zm0 13c-3.418 0-6.199-2.781-6.199-6.199s2.781-6.199 6.199-6.199 6.199 2.781 6.199 6.199-2.781 6.199-6.199 6.199zM7.246 4.459c-2.16.221-3.75 2.158-3.542 4.32.101 1.054.606 2.005 1.423 2.679.716.592 1.597.907 2.515.907l.386-.019c1.054-.101 2.005-.605 2.679-1.422.675-.816.99-1.847.887-2.924l-.375-3.922-3.973.381zm-2.225 6.034c-.404-.504-.655-1.114-.718-1.771-.176-1.833 1.172-3.477 3.002-3.664l3.194-.306c-.962 2.584-2.951 4.669-5.478 5.741zm5.22.048c-.571.692-1.378 1.121-2.272 1.206-.894.087-1.768-.183-2.459-.753l-.044-.044c2.341-1.055 4.228-2.932 5.299-5.264l.229 2.396c.086.893-.181 1.767-.753 2.459z"/></g></svg>

<svg xmlns="http://www.w3.org/2000/svg" viewBox="0 0 16 16"><path fill="#ccc" d="M8 1.199C4.25 1.199 1.199 4.25 1.199 8S4.25 14.801 8 14.801 14.801 11.75 14.801 8 11.75 1.199 8 1.199zm0 13c-3.418 0-6.199-2.781-6.199-6.199S4.582 1.801 8 1.801 14.199 4.582 14.199 8 11.418 14.199 8 14.199zm-.754-9.74a3.972 3.972 0 0 0-3.542 4.32 3.936 3.936 0 0 0 1.423 2.679 3.927 3.927 0 0 0 2.515.907l.386-.019a3.935 3.935 0 0 0 2.679-1.422c.675-.816.99-1.847.887-2.924l-.375-3.922-3.973.381zm-2.225 6.034a3.33 3.33 0 0 1-.718-1.771 3.369 3.369 0 0 1 3.002-3.664l3.194-.306a10.054 10.054 0 0 1-5.478 5.741zm5.22.048a3.336 3.336 0 0 1-2.272 1.206 3.335 3.335 0 0 1-2.459-.753l-.044-.044a10.663 10.663 0 0 0 5.299-5.264l.229 2.396a3.333 3.333 0 0 1-.753 2.459z"/></svg>
